modules/hawcons-filled/icons/icon-14-flag.svg

<?xml version="1.0" encoding="UTF-8" standalone="no"?>
<svg width="32px" height="32px" viewBox="0 0 32 32" version="1.1" xmlns="http://www.w3.org/2000/svg" xmlns:xlink="http://www.w3.org/1999/xlink" xmlns:sketch="http://www.bohemiancoding.com/sketch/ns">
    <!-- Generator: Sketch 3.0.3 (7891) - http://www.bohemiancoding.com/sketch -->
    <title>icon 14 flag</title>
    <desc>Created with Sketch.</desc>
    <defs></defs>
    <g id="Page-1" stroke="none" stroke-width="1" fill="none" fill-rule="evenodd" sketch:type="MSPage">
        <g id="icon-14-flag" sketch:type="MSArtboardGroup" fill="#929292">
            <path d="M8,11.4939236 L8,29.9939236 L9,29.9939236 L9,15.4917069 C10.2662537,15.0112371 12.688621,14.5518079 16,15.9939238 C21.022644,18.1813011 24,15.9939236 24,15.9939236 L24,4.99392359 C24,4.99392359 21.0237426,7.23025181 16,4.9939236 C10.9762573,2.75759551 8,4.99392359 8,4.99392359 L8,11.4939236 L8,11.4939236 Z" id="flag" sketch:type="MSShapeGroup"></path>
        </g>
    </g>
</svg>

<svg width="32" height="32" xmlns="http://www.w3.org/2000/svg"><path d="M8 11.494v18.5h1V15.492c1.266-.48 3.689-.94 7 .502 5.023 2.187 8 0 8 0v-11s-2.976 2.236-8 0-8 0-8 0v6.5z" fill="#929292" fill-rule="evenodd"/></svg>
